X: 13575
T: Flying High
R: jig
M: 6/8
K: Amajor
|:AFE AcA|Bcd e3|dBd cBA|BAF EFG|
AFE AcA|Bcd efg|age cAe|1 dBG ABG:|2 dBG Ace||
|:a3 gec|Bcd e3|fdB ecA|GAB cde|
aba gec|Bcd efg|age cAe|1 dBG Ace:|2 dBG A3||

